build/flags/EuropeanUnion.svg

<svg xmlns="http://www.w3.org/2000/svg" fill="none" viewBox="0 0 28 28" focusable="false"><defs><filter id="European_Union_svg__a"><feColorMatrix values="0 0 0 0 1 0 0 0 0 1 0 0 0 0 1 0 0 0 1 0"/></filter></defs><mask id="European_Union_svg__b" width="28" height="20" x="0" y="4" maskUnits="userSpaceOnUse"><g filter="url(#European_Union_svg__a)"><rect width="28" height="20" y="4" fill="#FFF" rx="3"/><rect width="28" height="20" y="4" stroke="#969696" stroke-opacity="0" stroke-width="0" rx="3"/></g></mask><path fill="none" d="M0 0H28V28H0z"/><rect width="28" height="20" y="4" fill="#FFF" rx="3"/><rect width="28" height="20" y="4" rx="3"/><g mask="url(#European_Union_svg__b)"><path fill="#043CAE" d="M0 4H28V24H0z"/><path d="M0 4H28V24H0z"/><path fill="#FFD429" fill-rule="evenodd" d="M14 7.99998L13.0572 8.27612L13.3333 7.33331L13.0572 6.3905L14 6.66665L14.9428 6.3905L14.6666 7.33331L14.9428 8.27612L14 7.99998ZM9.72384 9.16928L10.6666 8.89314L11.6095 9.16928L11.3333 8.22648L11.6095 7.28367L10.6666 7.55981L9.72384 7.28367L9.99998 8.22648L9.72384 9.16928ZM17.3333 8.89314L16.3905 9.16928L16.6666 8.22648L16.3905 7.28367L17.3333 7.55981L18.2761 7.28367L18 8.22648L18.2761 9.16928L17.3333 8.89314ZM7.28367 11.6095L8.22648 11.3333L9.16928 11.6095L8.89314 10.6666L9.16928 9.72384L8.22648 9.99998L7.28367 9.72384L7.55981 10.6666L7.28367 11.6095ZM19.7735 11.3333L18.8307 11.6095L19.1068 10.6666L18.8307 9.72384L19.7735 9.99998L20.7163 9.72384L20.4401 10.6666L20.7163 11.6095L19.7735 11.3333ZM7.33331 14.6666L6.3905 14.9428L6.66665 14L6.3905 13.0572L7.33331 13.3333L8.27612 13.0572L7.99998 14L8.27612 14.9428L7.33331 14.6666ZM20.6666 14.6666L19.7238 14.9428L20 14L19.7238 13.0572L20.6666 13.3333L21.6095 13.0572L21.3333 14L21.6095 14.9428L20.6666 14.6666ZM8.22648 18L7.28367 18.2761L7.55981 17.3333L7.28367 16.3905L8.22648 16.6666L9.16928 16.3905L8.89314 17.3333L9.16928 18.2761L8.22648 18ZM18.8307 18.2761L19.7735 18L20.7163 18.2761L20.4401 17.3333L20.7163 16.3905L19.7735 16.6666L18.8307 16.3905L19.1068 17.3333L18.8307 18.2761ZM10.6666 20.4401L9.72384 20.7163L9.99998 19.7735L9.72384 18.8307L10.6666 19.1068L11.6095 18.8307L11.3333 19.7735L11.6095 20.7163L10.6666 20.4401ZM16.3905 20.7163L17.3333 20.4401L18.2761 20.7163L18 19.7735L18.2761 18.8307L17.3333 19.1068L16.3905 18.8307L16.6666 19.7735L16.3905 20.7163ZM14 21.3333L13.0572 21.6095L13.3333 20.6666L13.0572 19.7238L14 20L14.9428 19.7238L14.6666 20.6666L14.9428 21.6095L14 21.3333Z"/><path d="M14 7.99998L13.0572 8.27612L13.3333 7.33331L13.0572 6.3905L14 6.66665L14.9428 6.3905L14.6666 7.33331L14.9428 8.27612L14 7.99998ZM9.72384 9.16928L10.6666 8.89314L11.6095 9.16928L11.3333 8.22648L11.6095 7.28367L10.6666 7.55981L9.72384 7.28367L9.99998 8.22648L9.72384 9.16928ZM17.3333 8.89314L16.3905 9.16928L16.6666 8.22648L16.3905 7.28367L17.3333 7.55981L18.2761 7.28367L18 8.22648L18.2761 9.16928L17.3333 8.89314ZM7.28367 11.6095L8.22648 11.3333L9.16928 11.6095L8.89314 10.6666L9.16928 9.72384L8.22648 9.99998L7.28367 9.72384L7.55981 10.6666L7.28367 11.6095ZM19.7735 11.3333L18.8307 11.6095L19.1068 10.6666L18.8307 9.72384L19.7735 9.99998L20.7163 9.72384L20.4401 10.6666L20.7163 11.6095L19.7735 11.3333ZM7.33331 14.6666L6.3905 14.9428L6.66665 14L6.3905 13.0572L7.33331 13.3333L8.27612 13.0572L7.99998 14L8.27612 14.9428L7.33331 14.6666ZM20.6666 14.6666L19.7238 14.9428L20 14L19.7238 13.0572L20.6666 13.3333L21.6095 13.0572L21.3333 14L21.6095 14.9428L20.6666 14.6666ZM8.22648 18L7.28367 18.2761L7.55981 17.3333L7.28367 16.3905L8.22648 16.6666L9.16928 16.3905L8.89314 17.3333L9.16928 18.2761L8.22648 18ZM18.8307 18.2761L19.7735 18L20.7163 18.2761L20.4401 17.3333L20.7163 16.3905L19.7735 16.6666L18.8307 16.3905L19.1068 17.3333L18.8307 18.2761ZM10.6666 20.4401L9.72384 20.7163L9.99998 19.7735L9.72384 18.8307L10.6666 19.1068L11.6095 18.8307L11.3333 19.7735L11.6095 20.7163L10.6666 20.4401ZM16.3905 20.7163L17.3333 20.4401L18.2761 20.7163L18 19.7735L18.2761 18.8307L17.3333 19.1068L16.3905 18.8307L16.6666 19.7735L16.3905 20.7163ZM14 21.3333L13.0572 21.6095L13.3333 20.6666L13.0572 19.7238L14 20L14.9428 19.7238L14.6666 20.6666L14.9428 21.6095L14 21.3333Z"/></g></svg>

<svg xmlns="http://www.w3.org/2000/svg" fill="none" viewBox="0 0 28 28" focusable="false"><path fill="none" d="M0 0h28v28H0z"/><rect width="28" height="20" y="4" fill="#FFF" rx="3"/><rect width="28" height="20" y="4" rx="3"/><mask id="European_Union_svg__a" width="28" height="20" x="0" y="4" mask-type="alpha" maskUnits="userSpaceOnUse"><rect width="28" height="20" y="4" fill="#FFF" rx="3"/><rect width="28" height="20" y="4" stroke="#979797" stroke-opacity="0" stroke-width="0" rx="3"/></mask><g mask="url(#European_Union_svg__a)"><path fill="#043CAE" d="M0 4h28v20H0z"/><path d="M0 4h28v20H0z"/></g><g mask="url(#European_Union_svg__a)"><mask id="European_Union_svg__b" fill="#fff"><path fill-rule="evenodd" d="m14 8-.943.276.276-.943-.276-.942.943.276.943-.276-.276.942.276.943zm-3.333.893-.943.276.276-.943-.276-.942.943.276.942-.276-.276.942.276.943zm6.666 0-.942.276.276-.943-.277-.942.943.276.943-.276-.276.942.276.943zm-9.106 2.44-.943.277.276-.943-.276-.943.942.276.943-.276-.276.943.276.943zm11.546 0-.942.277.276-.943-.276-.943.942.276.943-.276-.276.943.276.943zm-12.44 3.334-.942.276.276-.943-.276-.943.942.276.943-.276L8 14l.276.943zm13.334 0-.943.276L20 14l-.276-.943.943.276.942-.276-.276.943.276.943zM8.227 18l-.943.276.276-.943-.276-.942.942.276.943-.277-.276.943.276.943zm11.546 0-.942.276.276-.943-.276-.942.942.276.943-.277-.276.943.276.943zm-9.106 2.44-.943.276.276-.943-.276-.942.943.276.942-.276-.276.942.276.943zm6.666 0-.942.276.276-.943-.277-.942.943.276.943-.276-.276.942.276.943zM14 21.333l-.943.277.276-.943-.276-.943L14 20l.943-.276-.276.943.276.942z" clip-rule="evenodd"/></mask><path fill="#FFD429" fill-rule="evenodd" d="m14 8-.943.276.276-.943-.276-.942.943.276.943-.276-.276.942.276.943zm-3.333.893-.943.276.276-.943-.276-.942.943.276.942-.276-.276.942.276.943zm6.666 0-.942.276.276-.943-.277-.942.943.276.943-.276-.276.942.276.943zm-9.106 2.44-.943.277.276-.943-.276-.943.942.276.943-.276-.276.943.276.943zm11.546 0-.942.277.276-.943-.276-.943.942.276.943-.276-.276.943.276.943zm-12.44 3.334-.942.276.276-.943-.276-.943.942.276.943-.276L8 14l.276.943zm13.334 0-.943.276L20 14l-.276-.943.943.276.942-.276-.276.943.276.943zM8.227 18l-.943.276.276-.943-.276-.942.942.276.943-.277-.276.943.276.943zm11.546 0-.942.276.276-.943-.276-.942.942.276.943-.277-.276.943.276.943zm-9.106 2.44-.943.276.276-.943-.276-.942.943.276.942-.276-.276.942.276.943zm6.666 0-.942.276.276-.943-.277-.942.943.276.943-.276-.276.942.276.943zM14 21.333l-.943.277.276-.943-.276-.943L14 20l.943-.276-.276.943.276.942z" clip-rule="evenodd" mask="url(#European_Union_svg__b)"/></g></svg>
